build/finance/USDSolid.svg

<svg xmlns="http://www.w3.org/2000/svg" fill="none" viewBox="0 0 24 24" focusable="false"><path d="M0 0H24V24H0z"/><path fill="#74767B" fill-rule="evenodd" d="M3 12C3 7.02944 7.02944 3 12 3C16.9706 3 21 7.02944 21 12C21 16.9706 16.9706 21 12 21C7.02944 21 3 16.9706 3 12ZM12.5618 7.39488L12.5618 6.66302C12.5618 6.30403 12.2708 6.01302 11.9118 6.01302C11.5528 6.01302 11.2618 6.30403 11.2618 6.66302L11.2618 7.4294C10.087 7.71578 9.37368 8.6867 9.31712 9.74095C9.24829 11.0238 10.1414 12.2697 11.8851 12.559C12.6587 12.6874 13.1309 12.9635 13.3954 13.244C13.6554 13.5197 13.7433 13.8265 13.7176 14.1079C13.6673 14.6591 13.1259 15.3295 11.9915 15.3295C11.3869 15.3295 11.0101 15.0807 10.7721 14.798C10.5086 14.4848 10.4305 14.1483 10.4305 14.0552C10.4305 13.6962 10.1395 13.4052 9.78055 13.4052C9.42156 13.4052 9.13055 13.6962 9.13055 14.0552C9.13055 14.4931 9.34305 15.1188 9.7775 15.635C10.1198 16.0417 10.6107 16.3937 11.2618 16.5473L11.2618 17.3528C11.2618 17.7118 11.5528 18.0028 11.9118 18.0028C12.2708 18.0028 12.5618 17.7118 12.5618 17.3528L12.5618 16.5871C13.946 16.3762 14.9047 15.4044 15.0122 14.226C15.0725 13.5649 14.8508 12.8926 14.3412 12.3521C13.8361 11.8165 13.0786 11.4393 12.0979 11.2766C10.9436 11.085 10.5853 10.3692 10.6152 9.81059C10.6466 9.22668 11.0936 8.6444 11.9915 8.6444C12.5777 8.6444 12.9056 8.8796 13.1062 9.14925C13.3287 9.44845 13.414 9.82315 13.414 10.0594C13.414 10.4183 13.705 10.7094 14.064 10.7094C14.423 10.7094 14.714 10.4183 14.714 10.0594C14.714 9.58749 14.563 8.9297 14.1493 8.37345C13.8005 7.90444 13.277 7.52681 12.5618 7.39488Z"/></svg>

<svg xmlns="http://www.w3.org/2000/svg" fill="none" viewBox="0 0 24 24" focusable="false"><path fill="#74767B" fill-rule="evenodd" d="M3 12c0-4.98 4.02-9 9-9 4.97 0 9 4.02 9 9a9 9 0 0 1-9 9c-4.98 0-9-4.03-9-9m9.56-4.61v-.73c0-.36-.29-.65-.65-.65s-.65.29-.65.65v.76a2.515 2.515 0 0 0-1.95 2.32c-.07 1.28.83 2.52 2.57 2.81.77.13 1.25.41 1.51.69.26.27.35.58.32.86-.05.55-.59 1.22-1.72 1.22-.61 0-.98-.24-1.22-.53-.27-.31-.34-.65-.34-.74 0-.36-.3-.65-.65-.65-.36 0-.65.29-.65.65 0 .44.21 1.06.64 1.58.34.41.84.76 1.49.91v.81c0 .36.29.65.65.65s.65-.29.65-.65v-.77c1.38-.21 2.34-1.18 2.45-2.36.06-.66-.16-1.33-.67-1.87s-1.27-.92-2.25-1.08c-1.15-.19-1.51-.91-1.48-1.46.03-.59.48-1.17 1.38-1.17.58 0 .91.23 1.11.5.22.3.31.68.31.91 0 .36.29.65.65.65s.65-.29.65-.65c0-.47-.15-1.13-.57-1.68-.34-.47-.87-.85-1.58-.98"/></svg>
